Otagle3/Assets/ikonySvG/UstawMarginesy.svg

<?xml version="1.0" encoding="UTF-8" standalone="no"?>
<svg
   xmlns:dc="http://purl.org/dc/elements/1.1/"
   xmlns:cc="http://creativecommons.org/ns#"
   xmlns:rdf="http://www.w3.org/1999/02/22-rdf-syntax-ns#"
   xmlns:svg="http://www.w3.org/2000/svg"
   xmlns="http://www.w3.org/2000/svg"
   id="svg47"
   version="1.1"
   viewBox="0 0 52.758294 52.758296"
   height="199.40143"
   width="199.40143">
  <defs
     id="defs42">
    <pattern
       id="EMFhbasepattern"
       patternUnits="userSpaceOnUse"
       width="6"
       height="6"
       x="0"
       y="0" />
  </defs>
  <metadata
     id="metadata45">
    <rdf:RDF>
      <cc:Work
         rdf:about="">
        <dc:format>image/svg+xml</dc:format>
        <dc:type
           rdf:resource="http://purl.org/dc/dcmitype/StillImage" />
        <dc:title></dc:title>
      </cc:Work>
    </rdf:RDF>
  </metadata>
  <g
     id="g8181"
     transform="translate(-462.55776,-235.15241)">
    <rect
       style="fill:#ffffff;stroke:#000000;stroke-width:0.49999899;stroke-linecap:round;stroke-miterlimit:4;stroke-dasharray:none;stroke-opacity:1;paint-order:fill markers stroke"
       id="rect833-1-5-3-0-1-8-8-4-0-2"
       width="52.258293"
       x="462.96259"
       y="235.41774"
       height="52.258293" />
    <text
       xml:space="preserve"
       style="font-size:6.3499999px;line-height:0.94999999;font-family:voestalpine;-inkscape-font-specification:voestalpine;text-align:center;letter-spacing:0px;word-spacing:0px;text-anchor:middle;stroke-width:0.26458299"
       x="488.84256"
       y="285.57999"
       id="text898-7-3-6-3-6-38-1-0-0-1"><tspan
         x="488.84256"
         y="285.57999"
         style="font-size:5.99723005px;text-align:center;text-anchor:middle;stroke-width:0.26458299"
         id="tspan1502-3">Ustaw marginesy</tspan></text>
    <text
       id="text1732-9-9-0-5-5"
       y="286.74344"
       x="489.09174"
       style="font-size:5.64444017px;line-height:1.25;font-family:voestalpine;-inkscape-font-specification:voestalpine;letter-spacing:0px;word-spacing:0px;stroke-width:0.26458299"
       xml:space="preserve"><tspan
         style="stroke-width:0.26458299"
         y="286.74344"
         x="489.09174"
         id="tspan1730-7-6-0-8-2"> </tspan></text>
    <g
       transform="matrix(1.8547045,0,0,1.8547045,474.25411,240.86143)"
       id="g1593"
       style="fill:#000000">
      <path
         id="path1570"
         d="M 2.4160156,-0.00585938 A 0.50005,0.50005 0 0 0 2.078125,0.15820312 L 1.1347656,1.1640625 A 0.50005,0.50005 0 0 0 1,1.4804688 V 0.00585938 H 0 v 4.00000002 0.5 0.5 10.9999996 H 4 V 4.0058594 H 1 V 1.5292969 A 0.50005,0.50005 0 0 0 1.1347656,1.8476562 L 2.078125,2.8554688 A 0.5002238,0.5002238 0 0 0 2.8085938,2.171875 L 2.6523438,2.0058594 H 4.3496094 L 4.1933594,2.171875 A 0.5002238,0.5002238 0 0 0 4.9238281,2.8554688 L 5.8652344,1.8476562 a 0.50005,0.50005 0 0 0 0,-0.6835937 L 4.9238281,0.15820312 a 0.50005,0.50005 0 0 0 -0.4023437,-0.1640625 0.50005,0.50005 0 0 0 -0.328125,0.84570313 l 0.15625,0.16601565 H 2.6523438 l 0.15625,-0.16601565 A 0.50005,0.50005 0 0 0 2.4160156,-0.00585938 Z m 6,0 A 0.50005,0.50005 0 0 0 8.078125,0.15820312 L 7.1347656,1.1640625 A 0.50005,0.50005 0 0 0 7,1.4804688 V 0.00585938 H 6 v 4.00000002 0.5 0.5 4.5 h 3 v -5.5 H 7 V 1.5292969 A 0.50005,0.50005 0 0 0 7.1347656,1.8476562 L 8.078125,2.8554688 A 0.50022343,0.50022343 0 1 0 8.8085938,2.171875 l -0.15625,-0.1660156 h 1.6972652 l -0.15625,0.1660156 a 0.50022343,0.50022343 0 0 0 0.730469,0.6835938 l 0.941406,-1.0078126 a 0.50005,0.50005 0 0 0 0,-0.6835937 L 10.923828,0.15820312 a 0.50005,0.50005 0 0 0 -0.402344,-0.1640625 0.50005,0.50005 0 0 0 -0.328125,0.84570313 l 0.15625,0.16601565 H 8.6523438 l 0.15625,-0.16601565 A 0.50005,0.50005 0 0 0 8.4160156,-0.00585938 Z M 12,0.00585938 v 4.00000002 0.5 0.5 4.5 h 4 v -5.5 H 13 V 0.00585938 Z M 1,5.0058594 H 3 V 15.005859 H 1 Z m 6,0 h 1 v 3.5 H 7 Z m 6,0 h 2 v 3.5 h -2 z"
         style="color:#000000;font-style:normal;font-variant:normal;font-weight:normal;font-stretch:normal;font-size:medium;line-height:normal;font-family:sans-serif;text-indent:0;text-align:start;text-decoration:none;text-decoration-line:none;text-decoration-style:solid;text-decoration-color:#000000;letter-spacing:normal;word-spacing:normal;text-transform:none;writing-mode:lr-tb;direction:ltr;baseline-shift:baseline;text-anchor:start;white-space:normal;clip-rule:nonzero;display:inline;overflow:visible;visibility:visible;isolation:auto;mix-blend-mode:normal;color-interpolation:sRGB;color-interpolation-filters:linearRGB;solid-color:#000000;solid-opacity:1;fill:#000000;fill-opacity:1;fill-rule:nonzero;stroke:none;stroke-width:1;stroke-linecap:square;stroke-linejoin:miter;stroke-miterlimit:4;stroke-dasharray:none;stroke-dashoffset:0;stroke-opacity:1;color-rendering:auto;image-rendering:auto;shape-rendering:auto;text-rendering:auto;enable-background:accumulate" />
    </g>
  </g>
</svg>

<svg id="SVGRoot" width="206px" height="206px" version="1.1" viewBox="0 0 206 206" xmlns="http://www.w3.org/2000/svg">
 <g transform="matrix(3.7795 0 0 3.7795 -1745.9 -886.33)">
  <rect x="462.96" y="235.42" width="52.258" height="52.258" fill="#fff" stroke="#000" stroke-linecap="round" stroke-width=".5" style="paint-order:fill markers stroke"/>
  <text x="488.84256" y="283.75845" font-family="sans-serif" font-size="6.35px" letter-spacing="0px" stroke-width=".26458" text-align="center" text-anchor="middle" word-spacing="0px" style="line-height:0.94999999" xml:space="preserve"><tspan x="488.84256" y="283.75845" font-family="sans-serif" font-size="4.9389px" stroke-width=".26458" text-align="center" text-anchor="middle">Ustaw marginesy</tspan></text>
  <text x="489.09174" y="286.74344" font-family="sans-serif" font-size="5.6444px" letter-spacing="0px" stroke-width=".26458" word-spacing="0px" style="line-height:1.25" xml:space="preserve"><tspan x="489.09174" y="286.74344" font-family="sans-serif" stroke-width=".26458"> </tspan></text>
  <g transform="matrix(1.8547 0 0 1.8547 474.25 240.86)">
   <path d="m2.416-.0058594a.50005.50005 0 00-.33789.16406l-.94336 1.0059a.50005.50005 0 00-.13477.31641v-1.4746h-1v16h4v-12h-3v-2.4766a.50005.50005 0 00.13477.31836l.94336 1.0078a.50022.50022 0 00.73047-.68359l-.15625-.16602h1.6973l-.15625.16602a.50022.50022 0 00.73047.68359l.94141-1.0078a.50005.50005 0 000-.68359l-.94141-1.0059a.50005.50005 0 00-.40234-.16406.50005.50005 0 00-.32812.8457l.15625.16602h-1.6973l.15625-.16602a.50005.50005 0 00-.39258-.8457zm6 0a.50005.50005 0 00-.33789.16406l-.94336 1.0059a.50005.50005 0 00-.13477.31641v-1.4746h-1v9.5h3v-5.5h-2v-2.4766a.50005.50005 0 00.13477.31836l.94336 1.0078a.50022.50022 0 10.73047-.68359l-.15625-.16602h1.6973l-.15625.16602a.50022.50022 0 00.73047.68359l.94141-1.0078a.50005.50005 0 000-.68359l-.94141-1.0059a.50005.50005 0 00-.40234-.16406.50005.50005 0 00-.32812.8457l.15625.16602h-1.6973l.15625-.16602a.50005.50005 0 00-.39258-.8457zm3.584.011719v9.5h4v-5.5h-3v-4zm-11 5h2v10h-2zm6 0h1v3.5h-1zm6 0h2v3.5h-2z" color="#000000" color-rendering="auto" image-rendering="auto" shape-rendering="auto" solid-color="#000000" style="isolation:auto;mix-blend-mode:normal;text-decoration-color:#000000;text-decoration-line:none;text-decoration-style:solid;text-indent:0;text-transform:none;white-space:normal"/>
  </g>
 </g>
</svg>
